X:118
T: WIR FAHREN AUF DER GRUENEN SEE
N: K2169A
O: Europa, Mitteleuropa, Deutschland, Kassel
R: Kinder - Lied, Reigen, Tanz - Spiel
M: 2/4
L: 1/16
K: C
G2 | G2G2G2G2 | G2e2c4 |
d3cB2A2 | A4G2
G2 | G2G2G2G2 | G2e2c4 |
d3cB2A2 | A4G4 |
G2E2G2E2 | G2e2c2
c2 | B4A2B2 | c4G2
G2 | E2G2F2E2 | D4z2

@@@ Tune index: 7455
